storage/app/icons/tabler/filled/alert-triangle.svg

<!--
version: "2.3"
unicode: "f6f0"
-->
<svg
  xmlns="http://www.w3.org/2000/svg"
  width="24"
  height="24"
  viewBox="0 0 24 24"
  fill="currentColor"
>
  <path d="M12 1.67c.955 0 1.845 .467 2.39 1.247l.105 .16l8.114 13.548a2.914 2.914 0 0 1 -2.307 4.363l-.195 .008h-16.225a2.914 2.914 0 0 1 -2.582 -4.2l.099 -.185l8.11 -13.538a2.914 2.914 0 0 1 2.491 -1.403zm.01 13.33l-.127 .007a1 1 0 0 0 0 1.986l.117 .007l.127 -.007a1 1 0 0 0 0 -1.986l-.117 -.007zm-.01 -7a1 1 0 0 0 -.993 .883l-.007 .117v4l.007 .117a1 1 0 0 0 1.986 0l.007 -.117v-4l-.007 -.117a1 1 0 0 0 -.993 -.883z" />
</svg>

<svg xmlns="http://www.w3.org/2000/svg" width="24" height="24" fill="currentColor" viewBox="0 0 24 24"><path d="M12 1.67c.955 0 1.845.467 2.39 1.247l.105.16 8.114 13.548a2.914 2.914 0 0 1-2.307 4.363l-.195.008H3.882a2.914 2.914 0 0 1-2.582-4.2l.099-.185 8.11-13.538A2.91 2.91 0 0 1 12 1.67M12.01 15l-.127.007a1 1 0 0 0 0 1.986L12 17l.127-.007a1 1 0 0 0 0-1.986zM12 8a1 1 0 0 0-.993.883L11 9v4l.007.117a1 1 0 0 0 1.986 0L13 13V9l-.007-.117A1 1 0 0 0 12 8"/></svg>
